X: 574
T: A yuyu
L: 1/8
M: 2/4
K: A
ce2f [I:setbarnb 1]| 
e2B2 | 
ce2B | 
A F A B | 
ce2c | 
B2c2 | 
G FE2 | 
AB2F | 
E4 |]

@@@ Tune index: 9448
